X: 27
T:March,Untitled. BF12.27
M:2/2
L:1/8
Q:120
C:Browne "C" hand
S:MS12,c1835,Browne Coll.,Lakes
R:March
O:England
A:Lakes
N:a rest has been added to each strain to make it add up..CGP
Z:vmp.Cherri Graebe.
K:G major
z2|G2 G>G G2 B>c|d>B G>G G2 c>d|e>cg2d>Bg2|(gf)(ag) fedc|!
B>d B<G A<c A<F|GBcd efga|bgfg fed^c|d2 d>dd2:|!
|:z2|a2 a>a ac'ba|g2 g>g gbag|fedg fedc|B2A>A AcBA|!
G2G>GG2 cd|e<c a2 f<d g2|Bd ce Ac FA|G2 G>G G2:|!
|:z2|"Trio"B4 A2A2|G4FGAB|dccc cBBB|BAAAA4|!
d4 c2 c>c|B4 ABcd|e<c c<A A<G G<F|F4G2:|!
|:z2|f2 a>a f2 z2|g2 b>b g2 z2|ABcd efga|g4fedc|!
B4A2A>A|d2d>dc4|B2cAG2F2|A4" DC"G3:|]
